assets/svg/ellipsis.svg

<?xml version="1.0" encoding="UTF-8"?>
<svg width="1000px" height="1000px" viewBox="0 0 1000 1000" version="1.1" xmlns="http://www.w3.org/2000/svg" xmlns:xlink="http://www.w3.org/1999/xlink">
    <!-- Generator: sketchtool 52.4 (67378) - http://www.bohemiancoding.com/sketch -->
    <title>ellipsis</title>
    <desc>Created with sketchtool.</desc>
    <g id="新版图标" stroke="none" stroke-width="1" fill="none" fill-rule="evenodd">
        <g id="ellipsis" fill="#323233">
            <g id="圆角-更多">
                <path d="M180.555556,555.555556 C142.202448,555.555556 111.111111,524.464219 111.111111,486.111111 C111.111111,447.758003 142.202448,416.666667 180.555556,416.666667 C218.908663,416.666667 250,447.758003 250,486.111111 C250,524.464219 218.908663,555.555556 180.555556,555.555556 Z M500,555.555556 C461.646892,555.555556 430.555556,524.464219 430.555556,486.111111 C430.555556,447.758003 461.646892,416.666667 500,416.666667 C538.353108,416.666667 569.444444,447.758003 569.444444,486.111111 C569.444444,524.464219 538.353108,555.555556 500,555.555556 Z M819.444444,555.555556 C781.091337,555.555556 750,524.464219 750,486.111111 C750,447.758003 781.091337,416.666667 819.444444,416.666667 C857.797552,416.666667 888.888889,447.758003 888.888889,486.111111 C888.888889,524.464219 857.797552,555.555556 819.444444,555.555556 Z" id="Combined-Shape"></path>
            </g>
        </g>
    </g>
</svg>

<svg width="1000" height="1000" xmlns="http://www.w3.org/2000/svg"><path d="M180.556 555.556c-38.354 0-69.445-31.092-69.445-69.445 0-38.353 31.091-69.444 69.445-69.444 38.353 0 69.444 31.091 69.444 69.444s-31.091 69.445-69.444 69.445zm319.444 0c-38.353 0-69.444-31.092-69.444-69.445 0-38.353 31.09-69.444 69.444-69.444 38.353 0 69.444 31.091 69.444 69.444s-31.09 69.445-69.444 69.445zm319.444 0c-38.353 0-69.444-31.092-69.444-69.445 0-38.353 31.091-69.444 69.444-69.444 38.354 0 69.445 31.091 69.445 69.444s-31.091 69.445-69.445 69.445z" fill="#323233" fill-rule="evenodd"/></svg>
